;FLAVOR:UltiGCode
;TIME:1724
;MATERIAL:2779
;MATERIAL2:0
;NOZZLE_DIAMETER:0.400000
;NOZZLE_DIAMETER2:0.400000

;Layer count: 198
;LAYER:0
M107
G0 F7200 X97.900 Y97.900 Z0.260
;TYPE:SKIRT
G1 F1200 X125.100 Y97.900 E2.82880
G1 X125.100 Y125.100 E5.65760
G1 X97.900 Y125.100 E8.48640
G1 X97.900 Y97.900 E11.31520
G0 F7200 X98.300 Y98.300
G1 F1200 X124.700 Y98.300 E14.06080
G1 X124.700 Y124.700 E16.80640
G1 X98.300 Y124.700 E19.55200
G1 X98.300 Y98.300 E22.29760
G10
G0 F7200 X102.100 Y102.100
;TYPE:WALL-INNER
G11
G1 F1200 X120.900 Y102.100 E24.25280
G1 X120.900 Y120.900 E26.20800
G1 X102.100 Y120.900 E28.16320
G1 X102.100 Y102.100 E30.11840
G0 F7200 X101.700 Y101.700
;TYPE:WALL-OUTER
G1 F1200 X121.300 Y101.700 E32.15680
G1 X121.300 Y121.300 E34.19520
G1 X101.700 Y121.300 E36.23360
G1 X101.700 Y101.700 E38.27200
G0 F7200 X102.259 Y102.542
;TYPE:SKIN
G1 F1200 X120.456 Y120.739 E40.94838
G0 F7200 X120.739 Y120.457
G1 F1200 X102.542 Y102.259 E43.62484
G0 F7200 X103.108 Y102.259
G1 F1200 X120.739 Y119.891 E46.21805
G0 F7200 X120.739 Y119.325
G1 F1200 X103.673 Y102.259 E48.72808
G0 F7200 X104.239 Y102.259
G1 F1200 X120.739 Y118.759 E51.15487
G0 F7200 X120.739 Y118.194
G1 F1200 X104.805 Y102.259 E53.49849
G0 F7200 X105.370 Y102.259
G1 F1200 X120.739 Y117.628 E55.75894
G0 F7200 X120.739 Y117.062
G1 F1200 X105.936 Y102.259 E57.93614
G0 F7200 X106.502 Y102.259
G1 F1200 X120.739 Y116.497 E60.03016
G0 F7200 X120.739 Y115.931
G1 F1200 X107.067 Y102.259 E62.04102
G0 F7200 X107.633 Y102.259
G1 F1200 X120.739 Y115.365 E63.96862
G0 F7200 X120.739 Y114.800
G1 F1200 X108.199 Y102.259 E65.81306
G0 F7200 X108.765 Y102.259
G1 F1200 X120.739 Y114.234 E67.57424
G0 F7200 X120.739 Y113.668
G1 F1200 X109.330 Y102.259 E69.25226
G0 F7200 X109.896 Y102.259
G1 F1200 X120.739 Y113.103 E70.84710
G0 F7200 X120.739 Y112.537
G1 F1200 X110.462 Y102.259 E72.35870
G0 F7200 X111.027 Y102.259
G1 F1200 X120.739 Y111.971 E73.78712
G0 F7200 X120.739 Y111.406
G1 F1200 X111.593 Y102.259 E75.13237
G0 F7200 X112.159 Y102.259
G1 F1200 X120.739 Y110.840 E76.39438
G0 F7200 X120.739 Y110.274
G1 F1200 X112.724 Y102.259 E77.57321
G0 F7200 X113.290 Y102.259
G1 F1200 X120.739 Y109.709 E78.66887
G0 F7200 X120.739 Y109.143
G1 F1200 X113.856 Y102.259 E79.68128
G0 F7200 X114.421 Y102.259
G1 F1200 X120.739 Y108.577 E80.61052
G0 F7200 X120.739 Y108.011
G1 F1200 X114.987 Y102.259 E81.45652
G0 F7200 X115.553 Y102.259
G1 F1200 X120.739 Y107.446 E82.21934
G0 F7200 X120.739 Y106.880
G1 F1200 X116.118 Y102.259 E82.89899
G0 F7200 X116.684 Y102.259
G1 F1200 X120.739 Y106.314 E83.49539
G0 F7200 X120.739 Y105.749
G1 F1200 X117.250 Y102.259 E84.00862
G0 F7200 X117.816 Y102.259
G1 F1200 X120.739 Y105.183 E84.43860
G0 F7200 X120.739 Y104.617
G1 F1200 X118.381 Y102.259 E84.78541
G0 F7200 X118.947 Y102.259
G1 F1200 X120.739 Y104.052 E85.04905
G0 F7200 X120.739 Y103.486
G1 F1200 X119.513 Y102.259 E85.22944
G0 F7200 X102.259 Y103.108
G1 F1200 X119.890 Y120.739 E87.82258
G0 F7200 X119.324 Y120.739
G1 F1200 X102.259 Y103.673 E90.33254
G0 F7200 X102.259 Y104.239
G1 F1200 X118.759 Y120.739 E92.75933
G0 F7200 X118.193 Y120.739
G1 F1200 X102.259 Y104.805 E95.10287
G0 F7200 X102.259 Y105.370
G1 F1200 X117.627 Y120.739 E97.36324
G0 F7200 X117.062 Y120.739
G1 F1200 X102.259 Y105.936 E99.54044
G0 F7200 X102.259 Y106.502
G1 F1200 X116.496 Y120.739 E101.63440
G0 F7200 X115.930 Y120.739
G1 F1200 X102.259 Y107.067 E103.64518
G0 F7200 X102.259 Y107.633
G1 F1200 X115.365 Y120.739 E105.57278
G0 F7200 X114.799 Y120.739
G1 F1200 X102.259 Y108.199 E107.41714
G0 F7200 X102.259 Y108.765
G1 F1200 X114.233 Y120.739 E109.17826
G0 F7200 X113.668 Y120.739
G1 F1200 X102.259 Y109.330 E110.85627
G0 F7200 X102.259 Y109.896
G1 F1200 X113.102 Y120.739 E112.45104
G0 F7200 X112.536 Y120.739
G1 F1200 X102.259 Y110.462 E113.96257
G0 F7200 X102.259 Y111.027
G1 F1200 X111.971 Y120.739 E115.39099
G0 F7200 X111.405 Y120.739
G1 F1200 X102.259 Y111.593 E116.73617
G0 F7200 X102.259 Y112.159
G1 F1200 X110.839 Y120.739 E117.99810
G0 F7200 X110.274 Y120.739
G1 F1200 X102.259 Y112.724 E119.17693
G0 F7200 X102.259 Y113.290
G1 F1200 X109.708 Y120.739 E120.27251
G0 F7200 X109.142 Y120.739
G1 F1200 X102.259 Y113.856 E121.28485
G0 F7200 X102.259 Y114.421
G1 F1200 X108.576 Y120.739 E122.21402
G0 F7200 X108.011 Y120.739
G1 F1200 X102.259 Y114.987 E123.06001
G0 F7200 X102.259 Y115.553
G1 F1200 X107.445 Y120.739 E123.82276
G0 F7200 X106.879 Y120.739
G1 F1200 X102.259 Y116.118 E124.50234
G0 F7200 X102.259 Y116.684
G1 F1200 X106.314 Y120.739 E125.09874
G0 F7200 X105.748 Y120.739
G1 F1200 X102.259 Y117.250 E125.61190
G0 F7200 X102.259 Y117.816
G1 F1200 X105.182 Y120.739 E126.04180
G0 F7200 X104.617 Y120.739
G1 F1200 X102.259 Y118.381 E126.38862
G0 F7200 X102.259 Y118.947
G1 F1200 X104.051 Y120.739 E126.65218
G0 F7200 X103.485 Y120.739
G1 F1200 X102.259 Y119.513 E126.83250
G0 F7200 X102.259 Y120.078
G1 F1200 X102.920 Y120.739 E126.92972
G0 F7200 X102.354 Y120.739
G1 F1200 X102.259 Y120.644 E126.94369
G0 F7200 X120.078 Y102.259
G1 F1200 X120.739 Y102.920 E127.04091
G0 F7200 X120.739 Y102.355
G1 F1200 X120.644 Y102.259 E127.05495
;LAYER:1
M106 S84
G0 F7200 X120.900 Y102.100 Z0.360
;TYPE:WALL-INNER
G1 F1620 X120.900 Y120.900 E127.80695
G1 X102.100 Y120.900 E128.55895
G1 X102.100 Y102.100 E129.31095
G1 X120.900 Y102.100 E130.06295
G0 F7200 X121.300 Y101.700
;TYPE:WALL-OUTER
G1 F1380 X121.300 Y121.300 E130.84695
G1 X101.700 Y121.300 E131.63095
G1 X101.700 Y101.700 E132.41495
G1 X121.300 Y101.700 E133.19895
G0 F7200 X120.739 Y102.423
;TYPE:SKIN
G1 F1620 X102.423 Y120.739 E134.23506
G0 F7200 X102.259 Y120.337
G1 F1620 X120.337 Y102.259 E135.25771
G0 F7200 X120.739 Y102.989
G1 F1620 X102.988 Y120.739 E136.26183
G0 F7200 X103.554 Y120.739
G1 F1620 X120.739 Y103.555 E137.23393
G0 F7200 X120.739 Y104.120
G1 F1620 X104.120 Y120.739 E138.17404
G0 F7200 X104.685 Y120.739
G1 F1620 X120.739 Y104.686 E139.08217
G0 F7200 X120.739 Y105.252
G1 F1620 X105.251 Y120.739 E139.95827
G0 F7200 X105.817 Y120.739
G1 F1620 X120.739 Y105.817 E140.80239
G0 F7200 X120.739 Y106.383
G1 F1620 X106.382 Y120.739 E141.61451
G0 F7200 X106.948 Y120.739
G1 F1620 X120.739 Y106.949 E142.39462
G0 F7200 X120.739 Y107.514
G1 F1620 X107.514 Y120.739 E143.14274
G0 F7200 X108.079 Y120.739
G1 F1620 X120.739 Y108.080 E143.85887
G0 F7200 X120.739 Y108.646
G1 F1620 X108.645 Y120.739 E144.54298
G0 F7200 X109.211 Y120.739
G1 F1620 X120.739 Y109.211 E145.19510
G0 F7200 X120.739 Y109.777
G1 F1620 X109.776 Y120.739 E145.81524
G0 F7200 X110.342 Y120.739
G1 F1620 X120.739 Y110.343 E146.40335
G0 F7200 X120.739 Y110.908
G1 F1620 X110.908 Y120.739 E146.95948
G0 F7200 X111.473 Y120.739
G1 F1620 X120.739 Y111.474 E147.48361
G0 F7200 X120.739 Y112.040
G1 F1620 X112.039 Y120.739 E147.97573
G0 F7200 X112.605 Y120.739
G1 F1620 X120.739 Y112.606 E148.43583
G0 F7200 X120.739 Y113.171
G1 F1620 X113.171 Y120.739 E148.86394
G0 F7200 X113.736 Y120.739
G1 F1620 X120.739 Y113.737 E149.26006
G0 F7200 X120.739 Y114.303
G1 F1620 X114.302 Y120.739 E149.62417
G0 F7200 X114.868 Y120.739
G1 F1620 X120.739 Y114.868 E149.95628
G0 F7200 X120.739 Y115.434
G1 F1620 X115.433 Y120.739 E150.25641
G0 F7200 X115.999 Y120.739
G1 F1620 X120.739 Y116.000 E150.52451
G0 F7200 X120.739 Y116.565
G1 F1620 X116.565 Y120.739 E150.76063
G0 F7200 X117.130 Y120.739
G1 F1620 X120.739 Y117.131 E150.96476
G0 F7200 X120.739 Y117.697
G1 F1620 X117.696 Y120.739 E151.13687
G0 F7200 X118.262 Y120.739
G1 F1620 X120.739 Y118.262 E151.27699
G0 F7200 X120.739 Y118.828
G1 F1620 X118.827 Y120.739 E151.38512
G0 F7200 X119.393 Y120.739
G1 F1620 X120.739 Y119.394 E151.46123
G0 F7200 X120.739 Y119.959
G1 F1620 X119.959 Y120.739 E151.50535
G0 F7200 X120.524 Y120.739
G1 F1620 X120.739 Y120.525 E151.51749
G0 F7200 X119.771 Y102.259
G1 F1620 X102.259 Y119.771 E152.50812
G0 F7200 X102.259 Y119.206
G1 F1620 X119.206 Y102.259 E153.46678
G0 F7200 X118.640 Y102.259
G1 F1620 X102.259 Y118.640 E154.39343
G0 F7200 X102.259 Y118.074
G1 F1620 X118.074 Y102.259 E155.28806
G0 F7200 X117.509 Y102.259
G1 F1620 X102.259 Y117.509 E156.15073
G0 F7200 X102.259 Y116.943
G1 F1620 X116.943 Y102.259 E156.98139
G0 F7200 X116.377 Y102.259
G1 F1620 X102.259 Y116.377 E157.78002
G0 F7200 X102.259 Y115.812
G1 F1620 X115.812 Y102.259 E158.54669
G0 F7200 X115.246 Y102.259
G1 F1620 X102.259 Y115.246 E159.28135
G0 F7200 X102.259 Y114.680
G1 F1620 X114.680 Y102.259 E159.98399
G0 F7200 X114.115 Y102.259
G1 F1620 X102.259 Y114.115 E160.65466
G0 F7200 X102.259 Y113.549
G1 F1620 X113.549 Y102.259 E161.29332
G0 F7200 X112.983 Y102.259
G1 F1620 X102.259 Y112.983 E161.89996
G0 F7200 X102.259 Y112.417
G1 F1620 X112.417 Y102.259 E162.47459
G0 F7200 X111.852 Y102.259
G1 F1620 X102.259 Y111.852 E163.01725
G0 F7200 X102.259 Y111.286
G1 F1620 X111.286 Y102.259 E163.52789
G0 F7200 X110.720 Y102.259
G1 F1620 X102.259 Y110.720 E164.00652
G0 F7200 X102.259 Y110.155
G1 F1620 X110.155 Y102.259 E164.45319
G0 F7200 X109.589 Y102.259
G1 F1620 X102.259 Y109.589 E164.86783
G0 F7200 X102.259 Y109.023
G1 F1620 X109.023 Y102.259 E165.25046
G0 F7200 X108.458 Y102.259
G1 F1620 X102.259 Y108.458 E165.60113
G0 F7200 X102.259 Y107.892
G1 F1620 X107.892 Y102.259 E165.91978
G0 F7200 X107.326 Y102.259
G1 F1620 X102.259 Y107.326 E166.20641
G0 F7200 X102.259 Y106.761
G1 F1620 X106.761 Y102.259 E166.46109
G0 F7200 X106.195 Y102.259
G1 F1620 X102.259 Y106.195 E166.68374
G0 F7200 X102.259 Y105.629
G1 F1620 X105.629 Y102.259 E166.87438
G0 F7200 X105.064 Y102.259
G1 F1620 X102.259 Y105.064 E167.03305
G0 F7200 X102.259 Y104.498
G1 F1620 X104.498 Y102.259 E167.15971
G0 F7200 X103.932 Y102.259
G1 F1620 X102.259 Y103.932 E167.25435
G0 F7200 X102.259 Y103.366
G1 F1620 X103.366 Y102.259 E167.31697
G0 F7200 X102.801 Y102.259
G1 F1620 X102.259 Y102.801 E167.34763
;LAYER:2
M106 S168
G0 F7200 X102.100 Y102.100 Z0.460
;TYPE:WALL-INNER
G1 F2100 X120.900 Y102.100 E168.09963
G1 X120.900 Y120.900 E168.85163
G1 X102.100 Y120.900 E169.60363
G1 X102.100 Y102.100 E170.35563
G0 F7200 X101.700 Y101.700
;TYPE:WALL-OUTER
G1 F1620 X121.300 Y101.700 E171.13963
G1 X121.300 Y121.300 E171.92363
G1 X101.700 Y121.300 E172.70763
G1 X101.700 Y101.700 E173.49163
G0 F7200 X102.259 Y102.542
;TYPE:SKIN
G1 F2100 X120.456 Y120.739 E174.52101
G0 F7200 X120.739 Y120.457
G1 F2100 X102.542 Y102.259 E175.55041
G0 F7200 X103.108 Y102.259
G1 F2100 X120.739 Y119.891 E176.54780
G0 F7200 X120.739 Y119.325
G1 F2100 X103.673 Y102.259 E177.51320
G0 F7200 X104.239 Y102.259
G1 F2100 X120.739 Y118.759 E178.44658
G0 F7200 X120.739 Y118.194
G1 F2100 X104.805 Y102.259 E179.34797
G0 F7200 X105.370 Y102.259
G1 F2100 X120.739 Y117.628 E180.21737
G0 F7200 X120.739 Y117.062
G1 F2100 X105.936 Y102.259 E181.05476
G0 F7200 X106.502 Y102.259
G1 F2100 X120.739 Y116.497 E181.86015
G0 F7200 X120.739 Y115.931
G1 F2100 X107.067 Y102.259 E182.63356
G0 F7200 X107.633 Y102.259
G1 F2100 X120.739 Y115.365 E183.37494
G0 F7200 X120.739 Y114.800
G1 F2100 X108.199 Y102.259 E184.08434
G0 F7200 X108.765 Y102.259
G1 F2100 X120.739 Y114.234 E184.76172
G0 F7200 X120.739 Y113.668
G1 F2100 X109.330 Y102.259 E185.40711
G0 F7200 X109.896 Y102.259
G1 F2100 X120.739 Y113.103 E186.02051
G0 F7200 X120.739 Y112.537
G1 F2100 X110.462 Y102.259 E186.60190
G0 F7200 X111.027 Y102.259
G1 F2100 X120.739 Y111.971 E187.15129
G0 F7200 X120.739 Y111.406
G1 F2100 X111.593 Y102.259 E187.66870
G0 F7200 X112.159 Y102.259
G1 F2100 X120.739 Y110.840 E188.15408
G0 F7200 X120.739 Y110.274
G1 F2100 X112.724 Y102.259 E188.60748
G0 F7200 X113.290 Y102.259
G1 F2100 X120.739 Y109.709 E189.02889
G0 F7200 X120.739 Y109.143
G1 F2100 X113.856 Y102.259 E189.41828
G0 F7200 X114.421 Y102.259
G1 F2100 X120.739 Y108.577 E189.77568
G0 F7200 X120.739 Y108.011
G1 F2100 X114.987 Y102.259 E190.10106
G0 F7200 X115.553 Y102.259
G1 F2100 X120.739 Y107.446 E190.39445
G0 F7200 X120.739 Y106.880
G1 F2100 X116.118 Y102.259 E190.65585
G0 F7200 X116.684 Y102.259
G1 F2100 X120.739 Y106.314 E190.88524
G0 F7200 X120.739 Y105.749
G1 F2100 X117.250 Y102.259 E191.08264
G0 F7200 X117.816 Y102.259
G1 F2100 X120.739 Y105.183 E191.24801
G0 F7200 X120.739 Y104.617
G1 F2100 X118.381 Y102.259 E191.38140
G0 F7200 X118.947 Y102.259
G1 F2100 X120.739 Y104.052 E191.48280
G0 F7200 X120.739 Y103.486
G1 F2100 X119.513 Y102.259 E191.55218
G0 F7200 X102.259 Y103.108
G1 F2100 X119.890 Y120.739 E192.54954
G0 F7200 X119.324 Y120.739
G1 F2100 X102.259 Y103.673 E193.51491
G0 F7200 X102.259 Y104.239
G1 F2100 X118.759 Y120.739 E194.44829
G0 F7200 X118.193 Y120.739
G1 F2100 X102.259 Y104.805 E195.34966
G0 F7200 X102.259 Y105.370
G1 F2100 X117.627 Y120.739 E196.21903
G0 F7200 X117.062 Y120.739
G1 F2100 X102.259 Y105.936 E197.05641
G0 F7200 X102.259 Y106.502
G1 F2100 X116.496 Y120.739 E197.86178
G0 F7200 X115.930 Y120.739
G1 F2100 X102.259 Y107.067 E198.63516
G0 F7200 X102.259 Y107.633
G1 F2100 X115.365 Y120.739 E199.37655
G0 F7200 X114.799 Y120.739
G1 F2100 X102.259 Y108.199 E200.08591
G0 F7200 X102.259 Y108.765
G1 F2100 X114.233 Y120.739 E200.76327
G0 F7200 X113.668 Y120.739
G1 F2100 X102.259 Y109.330 E201.40866
G0 F7200 X102.259 Y109.896
G1 F2100 X113.102 Y120.739 E202.02203
G0 F7200 X112.536 Y120.739
G1 F2100 X102.259 Y110.462 E202.60338
G0 F7200 X102.259 Y111.027
G1 F2100 X111.971 Y120.739 E203.15278
G0 F7200 X111.405 Y120.739
G1 F2100 X102.259 Y111.593 E203.67015
G0 F7200 X102.259 Y112.159
G1 F2100 X110.839 Y120.739 E204.15551
G0 F7200 X110.274 Y120.739
G1 F2100 X102.259 Y112.724 E204.60891
G0 F7200 X102.259 Y113.290
G1 F2100 X109.708 Y120.739 E205.03029
G0 F7200 X109.142 Y120.739
G1 F2100 X102.259 Y113.856 E205.41965
G0 F7200 X102.259 Y114.421
G1 F2100 X108.576 Y120.739 E205.77702
G0 F7200 X108.011 Y120.739
G1 F2100 X102.259 Y114.987 E206.10240
G0 F7200 X102.259 Y115.553
G1 F2100 X107.445 Y120.739 E206.39577
G0 F7200 X106.879 Y120.739
G1 F2100 X102.259 Y116.118 E206.65714
G0 F7200 X102.259 Y116.684
G1 F2100 X106.314 Y120.739 E206.88653
G0 F7200 X105.748 Y120.739
G1 F2100 X102.259 Y117.250 E207.08390
G0 F7200 X102.259 Y117.816
G1 F2100 X105.182 Y120.739 E207.24925
G0 F7200 X104.617 Y120.739
G1 F2100 X102.259 Y118.381 E207.38263
G0 F7200 X102.259 Y118.947
G1 F2100 X104.051 Y120.739 E207.48401
G0 F7200 X103.485 Y120.739
G1 F2100 X102.259 Y119.513 E207.55336
G0 F7200 X102.259 Y120.078
G1 F2100 X102.920 Y120.739 E207.59075
G0 F7200 X102.354 Y120.739
G1 F2100 X102.259 Y120.644 E207.59612
G0 F7200 X120.078 Y102.259
G1 F2100 X120.739 Y102.920 E207.63352
G0 F7200 X120.739 Y102.355
G1 F2100 X120.644 Y102.259 E207.63892
;LAYER:3
M106 S255
G0 F7200 X120.900 Y102.100 Z0.560
;TYPE:WALL-INNER
G1 F2520 X120.900 Y120.900 E208.39092
G1 X102.100 Y120.900 E209.14292
G1 X102.100 Y102.100 E209.89492
G1 X120.900 Y102.100 E210.64692
G0 F7200 X121.300 Y101.700
;TYPE:WALL-OUTER
G1 F1860 X121.300 Y121.300 E211.43092
G1 X101.700 Y121.300 E212.21492
G1 X101.700 Y101.700 E212.99892
G1 X121.300 Y101.700 E213.78292
G0 F7200 X120.739 Y102.423
;TYPE:SKIN
G1 F2520 X102.423 Y120.739 E214.81903
G0 F7200 X102.259 Y120.337
G1 F2520 X120.337 Y102.259 E215.84167
G0 F7200 X120.739 Y102.989
G1 F2520 X102.988 Y120.739 E216.84579
G0 F7200 X103.554 Y120.739
G1 F2520 X120.739 Y103.555 E217.81790
G0 F7200 X120.739 Y104.120
G1 F2520 X104.120 Y120.739 E218.75801
G0 F7200 X104.685 Y120.739
G1 F2520 X120.739 Y104.686 E219.66613
G0 F7200 X120.739 Y105.252
G1 F2520 X105.251 Y120.739 E220.54224
G0 F7200 X105.817 Y120.739
G1 F2520 X120.739 Y105.817 E221.38635
G0 F7200 X120.739 Y106.383
G1 F2520 X106.382 Y120.739 E222.19848
G0 F7200 X106.948 Y120.739
G1 F2520 X120.739 Y106.949 E222.97859
G0 F7200 X120.739 Y107.514
G1 F2520 X107.514 Y120.739 E223.72671
